X:1
T:Donna gentil
T:Donna gentil
T:Theodorico Sistino
T:Source : Cantiones trium vocum---Hamburgi---P.ab Ohr---1608. Editor : André Vierendeels (27/02/14).
C:Theodorico Sistino
%%score [ 1 2 3 ]
L:1/8
Q:1/4=80
M:4/4
K:Bb
V:1 treble nm="Soprano 1" snm="S 1"
V:2 treble nm="Soprano 2" snm="S 2"
V:3 bass nm="Bass" snm="B"
V:1
 d4 d2 e2 | d2 GA Bc dB | cd e3 d ce | d8 | e4 d4 | d2 e2 d3 c | =B2 c3 B/A/ B2 | e4 d3 c/B/ | %8
w: Don- na gen-|til, li _ _ _ _ _|_ _ spir- t'in- fer- *|na-|li, don-|na gen- til, _|li spir- * * t'in-|fer- na- * *|
 AB cd e3 d/c/ | d8 | e2 c2 d3 c | B2 A2 G2 c2 | e4 d4- | d2 cB c4 | d2 f2 e3 e | d4 cd ec | %16
w: |li,|li spir- t'in- *|* fer- na- li,|in- fer-|* * * na-|li, li spir- t'in-|fer- * * * *|
 d4 c2 d2 | dddd g2 g2 | f2 d2 c4 | d2 d2 eeee | d2 c2 =B2 c2- | c2 =B2 c2 e2 | d2 c2 f2 f2 | %23
w: na- li, son|quel- li che tra fiam' e|fo- co'ar- den-|te, son quel- li che tra|fiam' e fo- co'ar-|* den- te sen-|za pie- ta tor-|
 e2 d2 c2 B2 | e2 d3 c c2 | =B4 z2 d2 | e2 d2 c2 B2 |"^-natural" A3 G AB c2- | c2 BA =B4 | %29
w: men- ta no la|gen- * * *|te, sen-|za pie- ta tor-|men- ta no la gen-||
 c2 e2 e2 d2- | dc c2 =B3 B | g2 fe d4 | e2 d2 g4 | f4 d2 e2 | f8- | f4 e4 | d8 | e8 |] %38
w: te, sen- za pie-|* ta tor- men- ta|no la _ gen-|te, tor- men-|ta no _|_|* la|gen-|te.|
V:2
 z8 | G4 G2 G2 | C4 C4 | G3 A BA GF | E3 F GA B2- | BG c4 =B2 | z2 e2 d2 d2 | g4 f4 | f4 c2 GA | %9
w: |Don- na gen-|til, li|spir- t'in- * * * *|fer- * * * na-|* * * li,|don- na gen-|til, li|spir- t'in- * *|
 =B2 c4 B2 | c2 e2 f3 f | g4 g4 | c4 B4 | F2 B4 A2 | B2 d3 c c2- | c2 =B2 c2 c2 | BABG A2 BB | %17
w: fer- na- *|li, li spir- t'in-|fer- na-|l'in- fer-|na- * *|l'in- fer- * na-|* * li, son|quel- li che tra fiam' e son|
 BBBB e2 e2 | d2 B4 A2 | B2 B2 gggg | f2 e2 d2 e2 | d4 c4 | z2 e2 d2 c2 | B2 A2 GA B2 | c2 d2 e4 | %25
w: quel- li che tra fiam' e|foc' ar- den-|te, son quel- li che tra|fiam' e fo- co'ar-|den- te,|sen- za pie-|ta tor- men- * ta|no la gen-|
"^b" d4 z2 B2 | c2 d2 e2 e2 | f2 c2 f2 e2 | d8 | c2 G2 G3 F | E2 F2 G3 G | e2 dc =B4 | c2 B2 e4 | %33
w: te, sen-|za pie- ta tor-|men- ta no la|gen-|te, sen- za pie-|ta tor- men- ta|no la _ gen-|te, tor- men-|
 d4 B2 c2 | d6 c2 | =B4 c4- | c2 BA =B4 | c8 |] %38
w: ta no la|gen- *|||te.|
V:3
 z8 | z8 | z8 | z8 | z8 | z4 G,4 | G,2 C,2 G,2 G,2 | E,F, G,A, B,3 A,/G,/ | F,G, A,B, C3 B,/A,/ | %9
w: |||||Don-|na gen- til, li|spir- * * * * * *|* * * * t'in- * *|
 G,2 F,2 G,4 | C,2 C2 B,3 A, | G,2 F,2 E,2 C,2 | C,D, E,F, G,A, B,2- | B,2 A,G, F,4 | %14
w: * fer- na-|li, li spir- *|* t'in- fer- na-|l'in- * * * * * fer-|* * * na-|
 B,,2 B,2 C3 C | G,2 G,2 C,4 | G,4 z2 G,2 | G,G,G,G, E,2 E,2 | B,,2 B,,2 F,4 | B,,2 B,2 E,E,E,E, | %20
w: li, li spir- ti-|in- fer- na-|li, son|quel- li che ta fiam' e|fo- co'ar- den-|te, son quel- li che tra|
 F,2 F,2 G,2 C,2 | G,4 C,4 | z2 C2 B,2 A,2 | G,2 F,2 E,3 D, | C,2 =B,,2 C,4 | G,4 z2 G,2 | %26
w: fiam' e fo- co'ar-|den- te,|sen- za pie-|ta tor- men- ta|no la gen-|te, sen-|
 C2 B,2 _A,2 G,2 | F,3 E, D,2 C,2 | G,8 | C,2 C2 C2 =B,2 | C2 A,2 G,3 G, | E,2 F,2 G,4 | %32
w: za pie- ta tor-|men- ta no la|gen-|te, sen- za pie-|ta tor- men- ta|no la gen-|
 C,2 G,2 E,F, G,A, | B,8- | B,4 F,4 | G,8- | G,8 | C,8 |] %38
w: te, tor- men- * ta _|no|_ la|gen-||te.|

